assets/azuredevicesecuritywindows/original.svg

<svg height="18" viewBox="0 0 18 18" width="18" xmlns="http://www.w3.org/2000/svg" xmlns:xlink="http://www.w3.org/1999/xlink"><linearGradient id="a" gradientUnits="userSpaceOnUse" x1="11.202" x2="2.831" y1="13.906" y2="-.576"><stop offset="0" stop-color="#0078d4"/><stop offset=".998" stop-color="#83b9f9"/></linearGradient><path d="m12.574 7.01c0 4.036-4.969 7.286-6.049 7.945a.4.4 0 0 1 -.412 0c-1.081-.655-6.049-3.909-6.049-7.945v-4.857a.39.39 0 0 1 .384-.385c3.864-.102 2.975-1.768 5.871-1.768s2.006 1.666 5.871 1.768a.39.39 0 0 1 .384.385z" fill="#5ea0ef"/><path d="m12.055 7.051c0 3.7-4.556 6.682-5.547 7.286a.37.37 0 0 1 -.378 0c-.991-.6-5.547-3.584-5.547-7.286v-4.451a.357.357 0 0 1 .352-.353c3.544-.097 2.728-1.624 5.384-1.624s1.84 1.527 5.381 1.621a.357.357 0 0 1 .352.353z" fill="url(#a)"/><path d="m6.13 8.631h11.418a.37.37 0 0 1 .388.347v8.675a.37.37 0 0 1 -.388.347h-11.418a.37.37 0 0 1 -.388-.347v-8.675a.37.37 0 0 1 .388-.347" fill="#83b9f9"/><g fill="#fff"><path d="m6.108 8.631h11.463a.35.35 0 0 1 .365.327v1.307h-12.194v-1.307a.35.35 0 0 1 .366-.327m10.167 5.042h-7.526c-.167 0-.3.076-.3.17v.42c0 .094.136.17.3.17h7.526c.168 0 .3-.076.3-.17v-.42c.003-.094-.132-.17-.3-.17m0-1.914h-7.526c-.167 0-.3.076-.3.17v.42c0 .094.136.17.3.17h7.526c.168 0 .3-.076.3-.17v-.42c.003-.094-.132-.17-.3-.17m.485 4.513h-8.027c-.179 0-.324.082-.324.182v.446c0 .1.145.181.324.181h8.027c.179 0 .324-.081.324-.181v-.448c0-.098-.145-.18-.324-.18" opacity=".7"/><circle cx="7.198" cy="12.139" opacity=".7" r=".498"/><circle cx="7.198" cy="14.053" opacity=".7" r=".498"/><circle cx="7.078" cy="16.678" opacity=".7" r=".531"/></g></svg>

<svg xmlns="http://www.w3.org/2000/svg" width="18" height="18" viewBox="0 0 18 18"><defs><linearGradient id="b34e541a-f267-45a6-9cce-021b15a8536a" x1="11.202" x2="2.831" y1="13.906" y2="-.576" gradientUnits="userSpaceOnUse"><stop offset="0" stop-color="#0078d4"/><stop offset=".998" stop-color="#83b9f9"/></linearGradient></defs><g id="bac6293a-af63-4cea-ac41-34ab61f3fcef"><path fill="#5ea0ef" d="M12.574 7.01c0 4.036-4.969 7.286-6.049 7.945a.4.4 0 0 1-.412 0C5.032 14.3.064 11.046.064 7.01V2.153a.39.39 0 0 1 .384-.385C4.312 1.666 3.423 0 6.319 0s2.006 1.666 5.871 1.768a.39.39 0 0 1 .384.385Z"/><path fill="url(#b34e541a-f267-45a6-9cce-021b15a8536a)" d="M12.055 7.051c0 3.7-4.556 6.682-5.547 7.286a.37.37 0 0 1-.378 0c-.991-.6-5.547-3.584-5.547-7.286V2.6a.357.357 0 0 1 .352-.353C4.479 2.15 3.663.623 6.319.623S8.159 2.15 11.7 2.244a.357.357 0 0 1 .352.353Z"/><path fill="#83b9f9" d="M6.13 8.631h11.418a.37.37 0 0 1 .388.347v8.675a.37.37 0 0 1-.388.347H6.13a.37.37 0 0 1-.388-.347V8.978a.37.37 0 0 1 .388-.347"/><path fill="#fff" d="M6.108 8.631h11.463a.35.35 0 0 1 .365.327v1.307H5.742V8.958a.35.35 0 0 1 .366-.327M16.275 13.673H8.749c-.167 0-.3.076-.3.17v.42c0 .094.136.17.3.17h7.526c.168 0 .3-.076.3-.17v-.42c.003-.094-.132-.17-.3-.17M16.275 11.759H8.749c-.167 0-.3.076-.3.17v.42c0 .094.136.17.3.17h7.526c.168 0 .3-.076.3-.17v-.42c.003-.094-.132-.17-.3-.17M16.76 16.272H8.733c-.179 0-.324.082-.324.182v.446c0 .1.145.181.324.181h8.027c.179 0 .324-.081.324-.181v-.448c0-.098-.145-.18-.324-.18" opacity=".7"/><circle cx="7.198" cy="12.139" r=".498" fill="#fff" opacity=".7"/><circle cx="7.198" cy="14.053" r=".498" fill="#fff" opacity=".7"/><circle cx="7.078" cy="16.678" r=".531" fill="#fff" opacity=".7"/></g></svg>
